static/img/kroki/268ca28545a3794bba77c1fbd392921f.svg

<?xml version="1.0" encoding="us-ascii" standalone="no"?><svg xmlns="http://www.w3.org/2000/svg" xmlns:xlink="http://www.w3.org/1999/xlink" contentStyleType="text/css" height="252px" preserveAspectRatio="none" style="width:469px;height:252px;" version="1.1" viewBox="0 0 469 252" width="469px" zoomAndPan="magnify"><defs/><g><!--class azure_machine_learning_registry--><g id="elem_azure_machine_learning_registry"><rect codeLine="23" fill="#3D176E" height="39.7891" id="azure_machine_learning_registry" rx="2.5" ry="2.5" style="stroke:#000D19;stroke-width:0.5;" width="320" x="74.5" y="7"/><ellipse cx="89.5" cy="26.8945" fill="#ADD1B2" rx="11" ry="11" style="stroke:#181818;stroke-width:1.0;"/><path d="M92.4688,32.5352 Q91.8906,32.832 91.25,32.9727 Q90.6094,33.1289 89.9063,33.1289 Q87.4063,33.1289 86.0781,31.4883 Q84.7656,29.832 84.7656,26.707 Q84.7656,23.582 86.0781,21.9258 Q87.4063,20.2695 89.9063,20.2695 Q90.6094,20.2695 91.25,20.4258 Q91.9063,20.582 92.4688,20.8789 L92.4688,23.5977 Q91.8438,23.0195 91.25,22.7539 Q90.6563,22.4727 90.0313,22.4727 Q88.6875,22.4727 88,23.5508 Q87.3125,24.6133 87.3125,26.707 Q87.3125,28.8008 88,29.8789 Q88.6875,30.9414 90.0313,30.9414 Q90.6563,30.9414 91.25,30.6758 Q91.8438,30.3945 92.4688,29.8164 L92.4688,32.5352 Z " fill="#000000"/><text fill="#D9B8FF" font-family="Helvetica" font-size="17" lengthAdjust="spacing" textLength="278" x="108.5" y="32.7798">azure_machine_learning_registry</text></g><!--class azure_machine_learning_registry_code_container--><g id="elem_azure_machine_learning_registry_code_container"><rect codeLine="26" fill="#3D176E" height="39.7891" id="azure_machine_learning_registry_code_container" rx="2.5" ry="2.5" style="stroke:#000D19;stroke-width:0.5;" width="455" x="7" y="106.79"/><ellipse cx="22" cy="126.6845" fill="#ADD1B2" rx="11" ry="11" style="stroke:#181818;stroke-width:1.0;"/><path d="M24.9688,132.3252 Q24.3906,132.622 23.75,132.7627 Q23.1094,132.9189 22.4063,132.9189 Q19.9063,132.9189 18.5781,131.2783 Q17.2656,129.622 17.2656,126.497 Q17.2656,123.372 18.5781,121.7158 Q19.9063,120.0595 22.4063,120.0595 Q23.1094,120.0595 23.75,120.2158 Q24.4063,120.372 24.9688,120.6689 L24.9688,123.3877 Q24.3438,122.8095 23.75,122.5439 Q23.1563,122.2627 22.5313,122.2627 Q21.1875,122.2627 20.5,123.3408 Q19.8125,124.4033 19.8125,126.497 Q19.8125,128.5908 20.5,129.6689 Q21.1875,130.7314 22.5313,130.7314 Q23.1563,130.7314 23.75,130.4658 Q24.3438,130.1845 24.9688,129.6064 L24.9688,132.3252 Z " fill="#000000"/><text fill="#D9B8FF" font-family="Helvetica" font-size="17" lengthAdjust="spacing" textLength="413" x="41" y="132.5698">azure_machine_learning_registry_code_container</text></g><!--class azure_machine_learning_registry_code_version--><g id="elem_azure_machine_learning_registry_code_version"><rect codeLine="29" fill="#3D176E" height="39.7891" id="azure_machine_learning_registry_code_version" rx="2.5" ry="2.5" style="stroke:#000D19;stroke-width:0.5;" width="437" x="16" y="206.58"/><ellipse cx="31" cy="226.4745" fill="#ADD1B2" rx="11" ry="11" style="stroke:#181818;stroke-width:1.0;"/><path d="M33.9688,232.1152 Q33.3906,232.412 32.75,232.5527 Q32.1094,232.7089 31.4063,232.7089 Q28.9063,232.7089 27.5781,231.0683 Q26.2656,229.412 26.2656,226.287 Q26.2656,223.162 27.5781,221.5058 Q28.9063,219.8495 31.4063,219.8495 Q32.1094,219.8495 32.75,220.0058 Q33.4063,220.162 33.9688,220.4589 L33.9688,223.1777 Q33.3438,222.5995 32.75,222.3339 Q32.1563,222.0527 31.5313,222.0527 Q30.1875,222.0527 29.5,223.1308 Q28.8125,224.1933 28.8125,226.287 Q28.8125,228.3808 29.5,229.4589 Q30.1875,230.5214 31.5313,230.5214 Q32.1563,230.5214 32.75,230.2558 Q33.3438,229.9745 33.9688,229.3964 L33.9688,232.1152 Z " fill="#000000"/><text fill="#D9B8FF" font-family="Helvetica" font-size="17" lengthAdjust="spacing" textLength="395" x="50" y="232.3598">azure_machine_learning_registry_code_version</text></g><!--link azure_machine_learning_registry to azure_machine_learning_registry_code_container--><g id="link_azure_machine_learning_registry_azure_machine_learning_registry_code_container"><path codeLine="32" d="M234.5,47.22 C234.5,64.36 234.5,83.27 234.5,100.41 " fill="none" id="azure_machine_learning_registry-to-azure_machine_learning_registry_code_container" style="stroke:#1A83AF;stroke-width:2.0;"/><polygon fill="#1A83AF" points="234.5,106.41,238.5,97.41,234.5,101.41,230.5,97.41,234.5,106.41" style="stroke:#1A83AF;stroke-width:2.0;"/></g><!--link azure_machine_learning_registry_code_container to azure_machine_learning_registry_code_version--><g id="link_azure_machine_learning_registry_code_container_azure_machine_learning_registry_code_version"><path codeLine="33" d="M234.5,147.01 C234.5,164.15 234.5,183.06 234.5,200.2 " fill="none" id="azure_machine_learning_registry_code_container-to-azure_machine_learning_registry_code_version" style="stroke:#1A83AF;stroke-width:2.0;"/><polygon fill="#1A83AF" points="234.5,206.2,238.5,197.2,234.5,201.2,230.5,197.2,234.5,206.2" style="stroke:#1A83AF;stroke-width:2.0;"/></g><!--SRC=[bPDFQy904CNl-HGBdeMaqggNGYf8Uv5IUoibZDbPivZiokn4qTBltgJQiatyqrpsCFERUUyDRAOb2YpMl1C55Wia5xYLDciWA4HCPBSJcriIFQL03ORDvjGQlWhCe43nYFa6MQVG95updQuCEYTklDO3fAibsTB8mtecCAvgeM6FckJWNCnCUb4oUcRaU35Igaasb_O6CXhUOGkp996EI1Y6CXetaQjI5tF_4dEzHn7vHvjPnfRDbiGtTT5bJNWcMq5_-cSzFeEKsYp5hLTxENWYW_IdFiz0scrDAyYTB-CO2ItlrZXffSBnIAhXIVZf71oazUa4x4l2f80qqmQJ785CfPuGBhLZsecF8FZy7vgaLcBr60PTn-ewkQb-ZBRcC7VDLl-j5yMZGJnzxzztD1PqpD5TwfWa-080]--></g></svg>

<svg xmlns="http://www.w3.org/2000/svg" width="469" height="252" viewBox="0 0 469 252"><rect width="320" height="39.789" x="74.5" y="7" fill="#3D176E" rx="2.5" ry="2.5" style="stroke:#000d19;stroke-width:.5"/><circle cx="89.5" cy="26.895" r="11" fill="#ADD1B2" style="stroke:#181818;stroke-width:1"/><path d="M92.469 32.535q-.578.297-1.219.438-.64.156-1.344.156-2.5 0-3.828-1.64-1.312-1.657-1.312-4.782t1.312-4.781q1.328-1.656 3.828-1.656.703 0 1.344.156.656.156 1.219.453v2.719q-.625-.578-1.219-.844-.594-.281-1.219-.281-1.344 0-2.031 1.078-.687 1.062-.687 3.156T88 29.879q.688 1.062 2.031 1.062.625 0 1.219-.265.594-.281 1.219-.86z"/><text x="108.5" y="32.78" fill="#D9B8FF" font-family="Helvetica" font-size="17" textLength="278">azure_machine_learning_registry</text><rect width="455" height="39.789" x="7" y="106.79" fill="#3D176E" rx="2.5" ry="2.5" style="stroke:#000d19;stroke-width:.5"/><circle cx="22" cy="126.684" r="11" fill="#ADD1B2" style="stroke:#181818;stroke-width:1"/><path d="M24.969 132.325q-.578.297-1.219.438-.64.156-1.344.156-2.5 0-3.828-1.64-1.312-1.657-1.312-4.782t1.312-4.781q1.328-1.656 3.828-1.656.703 0 1.344.156.656.156 1.219.453v2.719q-.625-.579-1.219-.844-.594-.281-1.219-.281-1.343 0-2.031 1.078-.687 1.062-.687 3.156t.687 3.172q.688 1.062 2.031 1.062.625 0 1.219-.265.594-.281 1.219-.86z"/><text x="41" y="132.57" fill="#D9B8FF" font-family="Helvetica" font-size="17" textLength="413">azure_machine_learning_registry_code_container</text><rect width="437" height="39.789" x="16" y="206.58" fill="#3D176E" rx="2.5" ry="2.5" style="stroke:#000d19;stroke-width:.5"/><circle cx="31" cy="226.475" r="11" fill="#ADD1B2" style="stroke:#181818;stroke-width:1"/><path d="M33.969 232.115q-.578.297-1.219.438-.64.156-1.344.156-2.5 0-3.828-1.64-1.312-1.657-1.312-4.782t1.312-4.781q1.328-1.656 3.828-1.656.703 0 1.344.156.656.156 1.219.453v2.719q-.625-.578-1.219-.844-.594-.281-1.219-.281-1.343 0-2.031 1.078-.687 1.062-.687 3.156t.687 3.172q.688 1.062 2.031 1.062.625 0 1.219-.265.594-.281 1.219-.86z"/><text x="50" y="232.36" fill="#D9B8FF" font-family="Helvetica" font-size="17" textLength="395">azure_machine_learning_registry_code_version</text><path fill="none" d="M234.5 47.22v53.19" style="stroke:#1a83af;stroke-width:2"/><path fill="#1A83AF" d="m234.5 106.41 4-9-4 4-4-4z" style="stroke:#1a83af;stroke-width:2"/><path fill="none" d="M234.5 147.01v53.19" style="stroke:#1a83af;stroke-width:2"/><path fill="#1A83AF" d="m234.5 206.2 4-9-4 4-4-4z" style="stroke:#1a83af;stroke-width:2"/></svg>
